X:1
T: Around the World for Sport
C:
R:Reel
I:speed 232
Q:232
K:G
M:4/4
L:1/8
GF GB A2dc|Bd Ac BE EF|GF GB A2dc|BG AG FD EF|
GF GB A2dc|((3Bcd) Ac BE EF|G2GF GA B^c|dB AG FD Df|
|:gf ef g2ef|ge ag fd df|gf ef gf ed|Bd AG FD Df|
gf ef g2bg|fg ag fd df|gb af gf ed|1((3B^cd) AG Fd ef:|2((3B^cd) AG FD EF|
GF GB A2dc|Bd Ac BE EF|GF GB A2dc|BG AG FD EF|
GF GB A2dc|((3Bcd) Ac BE EF|G2GF GA B^c|dB AG FDD2||
